svg/furkot/freepik/house.svg

<svg viewBox="0 0 512 512" xmlns="http://www.w3.org/2000/svg"><path d="m69.67 471.723s-.455 11.453 10.733 11.453c13.919 0 129.157-.151 129.157-.151l.189-105.833s-1.82-17.446 15.114-17.446h53.589c20.025 0 18.792 17.446 18.792 17.446l-.227 105.491h126.426c14.203 0 13.558-14.26 13.558-14.26v-195.11l-178.176-158.492-189.155 158.492z"/><path d="m0 258.56s16.062 29.601 51.086 0l209.313-177.076 196.248 175.976c40.543 29.241 55.732 0 55.732 0l-251.98-228.257zm451.887-177.493h-50.479l.209 61.212 50.27 42.648z"/></svg>

<svg xmlns="http://www.w3.org/2000/svg" viewBox="0 0 512 512"><path d="M69.67 471.723C69.67 471.723 69.215 483.176 80.403 483.176 94.322 483.176 209.56 483.025 209.56 483.025L209.749 377.192C209.749 377.192 207.929 359.746 224.863 359.746H278.452C298.477 359.746 297.244 377.192 297.244 377.192L297.017 482.683C297.017 482.683 406.281 482.683 423.443 482.683 437.646 482.683 437.001 468.423 437.001 468.423V273.313L258.825 114.821 69.67 273.313C69.67 273.313 69.67 471.723 69.67 471.723Z"/><path d="M0 258.56C0 258.56 16.062 288.161 51.086 258.56L260.399 81.484 456.647 257.46C497.19 286.701 512.379 257.46 512.379 257.46L260.399 29.203 0 258.56ZM451.887 81.067L401.408 81.067 401.617 142.279 451.887 184.927Z"/></svg>
